rospo-dark/16x16/devices/input-touchpad.svg

<svg height="22" viewBox="0 0 16 16" width="22" xmlns="http://www.w3.org/2000/svg"><path d="m2.9090907 3.2727273c-.7272727 0-.7272727.7272728-.7272727.7272728v7.9999999s0 .727273.7272727.727273h10.1818183s.727273 0 .727273-.727273v-7.9999999c0-.7272728-.727273-.7272728-.727273-.7272728zm.7272728 1.4545455h8.7272725v4.363636h-8.7272725zm0 5.090909h3.6363636v1.4545462h-3.6363636zm5.090909 0h3.6363635v1.4545462h-3.6363635z" fill="#d3dae3" stroke-width=".727273"/></svg>

<?xml version="1.0" encoding="UTF-8" standalone="no"?>
<svg
   xmlns:dc="http://purl.org/dc/elements/1.1/"
   xmlns:cc="http://creativecommons.org/ns#"
   xmlns:rdf="http://www.w3.org/1999/02/22-rdf-syntax-ns#"
   xmlns:svg="http://www.w3.org/2000/svg"
   xmlns="http://www.w3.org/2000/svg"
   xmlns:sodipodi="http://sodipodi.sourceforge.net/DTD/sodipodi-0.dtd"
   xmlns:inkscape="http://www.inkscape.org/namespaces/inkscape"
   width="22"
   height="22"
   viewBox="0 0 16 16"
   version="1.1"
   id="svg7"
   sodipodi:docname="input-touchpad.svg"
   inkscape:version="0.92.1 r">
  <metadata
     id="metadata11">
    <rdf:RDF>
      <cc:Work
         rdf:about="">
        <dc:format>image/svg+xml</dc:format>
        <dc:type
           rdf:resource="http://purl.org/dc/dcmitype/StillImage" />
      </cc:Work>
    </rdf:RDF>
  </metadata>
  <sodipodi:namedview
     pagecolor="#ffffff"
     bordercolor="#666666"
     borderopacity="1"
     objecttolerance="10"
     gridtolerance="10"
     guidetolerance="10"
     inkscape:pageopacity="0"
     inkscape:pageshadow="2"
     inkscape:window-width="769"
     inkscape:window-height="480"
     id="namedview9"
     showgrid="false"
     inkscape:zoom="10.727273"
     inkscape:cx="11"
     inkscape:cy="11"
     inkscape:window-x="0"
     inkscape:window-y="0"
     inkscape:window-maximized="0"
     inkscape:current-layer="svg7" />
  <defs
     id="defs3">
    <style
       id="current-color-scheme"
       type="text/css">
   .ColorScheme-Text { color:#d3dae3; } .ColorScheme-Highlight { color:#5294e2; }
  </style>
  </defs>
  <path
     style="color:#d3dae3;fill:currentColor;stroke-width:0.72727275"
     class="ColorScheme-Text"
     d="m 2.9090907,3.2727273 c -0.7272727,0 -0.7272727,0.7272728 -0.7272727,0.7272728 V 12 c 0,0 0,0.727273 0.7272727,0.727273 H 13.090909 c 0,0 0.727273,0 0.727273,-0.727273 V 4.0000001 c 0,-0.7272728 -0.727273,-0.7272728 -0.727273,-0.7272728 z m 0.7272728,1.4545455 h 8.7272725 v 4.363636 H 3.6363635 Z m 0,5.090909 H 7.2727271 V 11.272728 H 3.6363635 Z m 5.090909,0 H 12.363636 V 11.272728 H 8.7272725 Z"
     id="path5"
     inkscape:connector-curvature="0" />
</svg>
